Papirus/22x22/panel/copy-sync1.svg

<?xml version="1.0" encoding="UTF-8" standalone="no"?>
<svg xmlns:dc="http://purl.org/dc/elements/1.1/" xmlns:cc="http://creativecommons.org/ns#" xmlns:rdf="http://www.w3.org/1999/02/22-rdf-syntax-ns#" xmlns:svg="http://www.w3.org/2000/svg" xmlns="http://www.w3.org/2000/svg" id="svg2" x="0px" y="0px" version="1.1" width="22" viewBox="0 0 22 22" height="22" xml:space="preserve" enable-background="new 0 0 24 24">
    <metadata id="metadata14">
        <rdf:RDF>
            <cc:Work rdf:about="">
                <dc:format>
                    image/svg+xml
                </dc:format>
                <dc:type rdf:resource="http://purl.org/dc/dcmitype/StillImage"/>
                <dc:title/>
            </cc:Work>
        </rdf:RDF>
    </metadata>
    <path id="path6" d="M 19.634766 2.0253906 L 14.017578 8.84375 L 16 10 L 20 2.3515625 L 19.634766 2.0253906 z M 5 6.5 L 1 10 L 5.375 9.375 L 7 19 L 10.392578 16.699219 L 11 16.876953 L 11 16 A 1.0001357 1.0001357 0 0 1 11.162109 15.457031 A 1.0001357 1.0001357 0 0 1 11.0625 14.855469 C 11.1255 14.429454 11.26154 14.029452 11.435547 13.648438 L 9.7480469 15.091797 L 6.5 7 L 5 6.5 z M 12 9.0292969 L 9 10 L 10 13 L 14 10 L 12 9.0292969 z M 15 10.599609 L 14.326172 11.175781 C 14.702185 11.071777 15.091985 11 15.5 11 C 15.528 11 15.554031 11.006813 15.582031 11.007812 L 15 10.599609 z M 15.5 12 C 13.746927 12 12.29711 13.312084 12.050781 15 L 13.570312 15 C 13.790529 14.134044 14.560606 13.5 15.5 13.5 C 16.057389 13.5 16.551495 13.727427 16.910156 14.089844 L 16 15 L 19 15 L 19 12 L 17.957031 13.042969 C 17.326162 12.405384 16.463818 12 15.5 12 z M 12 16 L 12 19 L 13.042969 17.957031 C 13.673838 18.594617 14.536182 19 15.5 19 C 17.253074 19 18.70289 17.687915 18.949219 16 L 17.429688 16 C 17.209632 16.866206 16.439562 17.5 15.5 17.5 C 14.942511 17.5 14.448505 17.272556 14.089844 16.910156 L 15 16 L 13.570312 16 L 12.050781 16 L 12 16 z M 19.326172 17.816406 C 19.051163 18.270422 18.700077 18.670941 18.289062 19.001953 L 20 19.5 L 19.326172 17.816406 z " style="fill:#ffffff;fill-opacity:1;opacity:1"/>
</svg>

<?xml version="1.0" encoding="UTF-8" standalone="no"?>
<svg id="svg2" xmlns:rdf="http://www.w3.org/1999/02/22-rdf-syntax-ns#" xmlns="http://www.w3.org/2000/svg" enable-background="new 0 0 24 24" xml:space="preserve" viewBox="0 0 22 22" width="22" version="1.1" y="0px" x="0px" xmlns:cc="http://creativecommons.org/ns#" height="22" xmlns:dc="http://purl.org/dc/elements/1.1/">
    <metadata id="metadata14">
        <rdf:RDF>
            <cc:Work rdf:about="">
                <dc:format>
                    image/svg+xml
                </dc:format>
                <dc:type rdf:resource="http://purl.org/dc/dcmitype/StillImage"/>
                <dc:title/>
            </cc:Work>
        </rdf:RDF>
    </metadata>
    <path id="path6" d="m19.635 2.0254l-5.617 6.8184 1.982 1.1562 4-7.6484-0.365-0.3262zm-14.635 4.4746l-4 3.5 4.375-0.625 1.625 9.625 3.393-2.301 0.607 0.178v-0.877a1.0001 1.0001 0 0 1 0.162 -0.543 1.0001 1.0001 0 0 1 -0.1 -0.602c0.064-0.426 0.2-0.826 0.374-1.207l-1.688 1.444-3.248-8.092-1.5-0.5zm7 2.5293l-3 0.9707 1 3 4-3-2-0.9707zm3 1.5707l-0.674 0.576c0.376-0.104 0.766-0.176 1.174-0.176 0.028 0 0.054 0.007 0.082 0.008l-0.582-0.408zm0.5 1.4c-1.753 0-3.203 1.312-3.449 3h1.519c0.221-0.866 0.991-1.5 1.93-1.5 0.557 0 1.051 0.227 1.41 0.59l-0.91 0.91h3v-3l-1.043 1.043c-0.631-0.638-1.493-1.043-2.457-1.043zm-3.5 4v3l1.043-1.043c0.631 0.638 1.493 1.043 2.457 1.043 1.753 0 3.203-1.312 3.449-3h-1.519c-0.22 0.866-0.99 1.5-1.93 1.5-0.557 0-1.051-0.227-1.41-0.59l0.91-0.91h-1.43-1.519-0.051zm7.326 1.816c-0.275 0.454-0.626 0.855-1.037 1.186l1.711 0.498-0.674-1.684z" fill="#fff"/>
</svg>
